public/assets/user.svg

<svg width="24" height="24" viewBox="0 0 24 24" fill="none" xmlns="http://www.w3.org/2000/svg">
<path fill-rule="evenodd" clip-rule="evenodd" d="M12 1.25C9.37666 1.25 7.25001 3.37665 7.25001 6C7.25001 8.62335 9.37666 10.75 12 10.75C14.6234 10.75 16.75 8.62335 16.75 6C16.75 3.37665 14.6234 1.25 12 1.25ZM8.75001 6C8.75001 4.20507 10.2051 2.75 12 2.75C13.7949 2.75 15.25 4.20507 15.25 6C15.25 7.79493 13.7949 9.25 12 9.25C10.2051 9.25 8.75001 7.79493 8.75001 6Z" fill="#EFEFEF"/>
<path fill-rule="evenodd" clip-rule="evenodd" d="M12 12.25C9.68646 12.25 7.55494 12.7759 5.97546 13.6643C4.4195 14.5396 3.25001 15.8661 3.25001 17.5L3.24995 17.602C3.24882 18.7638 3.2474 20.222 4.52642 21.2635C5.15589 21.7761 6.03649 22.1406 7.22622 22.3815C8.41927 22.6229 9.97424 22.75 12 22.75C14.0258 22.75 15.5808 22.6229 16.7738 22.3815C17.9635 22.1406 18.8441 21.7761 19.4736 21.2635C20.7526 20.222 20.7512 18.7638 20.7501 17.602L20.75 17.5C20.75 15.8661 19.5805 14.5396 18.0246 13.6643C16.4451 12.7759 14.3136 12.25 12 12.25ZM4.75001 17.5C4.75001 16.6487 5.37139 15.7251 6.71085 14.9717C8.02681 14.2315 9.89529 13.75 12 13.75C14.1047 13.75 15.9732 14.2315 17.2892 14.9717C18.6286 15.7251 19.25 16.6487 19.25 17.5C19.25 18.8078 19.2097 19.544 18.5264 20.1004C18.1559 20.4022 17.5365 20.6967 16.4762 20.9113C15.4193 21.1252 13.9742 21.25 12 21.25C10.0258 21.25 8.58075 21.1252 7.5238 20.9113C6.46354 20.6967 5.84413 20.4022 5.4736 20.1004C4.79033 19.544 4.75001 18.8078 4.75001 17.5Z" fill="#EFEFEF"/>
</svg>

<svg width="24" height="24" fill="none" xmlns="http://www.w3.org/2000/svg"><path fill-rule="evenodd" clip-rule="evenodd" d="M12 1.25a4.75 4.75 0 1 0 0 9.5 4.75 4.75 0 0 0 0-9.5ZM8.75 6a3.25 3.25 0 1 1 6.5 0 3.25 3.25 0 0 1-6.5 0ZM12 12.25c-2.314 0-4.445.526-6.025 1.414C4.42 14.54 3.25 15.866 3.25 17.5v.102c-.001 1.162-.003 2.62 1.276 3.662.63.512 1.51.877 2.7 1.117 1.193.242 2.748.369 4.774.369s3.58-.127 4.774-.369c1.19-.24 2.07-.605 2.7-1.117 1.279-1.042 1.277-2.5 1.276-3.662V17.5c0-1.634-1.17-2.96-2.725-3.836-1.58-.888-3.711-1.414-6.025-1.414ZM4.75 17.5c0-.851.621-1.775 1.96-2.528 1.317-.74 3.185-1.222 5.29-1.222s3.973.482 5.29 1.222c1.339.753 1.96 1.677 1.96 2.528 0 1.308-.04 2.044-.724 2.6-.37.302-.99.597-2.05.811-1.057.214-2.502.339-4.476.339-1.974 0-3.42-.125-4.476-.339-1.06-.214-1.68-.509-2.05-.81-.684-.557-.724-1.293-.724-2.601Z" fill="#EFEFEF"/></svg>
